!!!COM: Palestrina, Giovanni Perluigi da
!!!OPR: Pro Defunctis
!!!OTL: Agnus III
**kern	**kern	**kern	**kern	**kern
*Ibass	*Itenor	*Itenor	*Icalto	*Icant
!Bassus	!Tenor 2	!Tenor 1	!Altus	!Cantus
*clefF4	*clefGv2	*clefGv2	*clefG2	*clefG2
*k[]	*k[]	*k[]	*k[]	*k[]
*?:X	*?:X	*?:X	*?:X	*?:X
*M4/2	*M4/2	*M4/2	*M4/2	*M4/2
=1	=1	=1	=1	=1
0r	0d	0r	0r	0r
=2	=2	=2	=2	=2
1r	1c#	0r	0r	0r
[1G	1d	.	.	.
=3	=3	=3	=3	=3
1G]	1B	0r	1r	0r
1F#	1A	.	[1d	.
=4	=4	=4	=4	=4
1G	1B	0r	1d]	0g
1E	1G	.	1c#	.
=5	=5	=5	=5	=5
1D	1A	0r	1d	1f#
1GG	1B	.	1d	1g
=6	=6	=6	=6	=6
1.C	1c	0r	2e	0g
.	.	.	1e	.
.	2C	.	.	.
2BB	2D	.	2d	.
=7	=7	=7	=7	=7
0AA	2E	0r	2c#	0a
.	2F	.	1d	.
.	1E	.	.	.
.	.	.	2c#	.
=8	=8	=8	=8	=8
0GG	2r	0G	0d	2.b
.	4G	.	.	.
.	4A	.	.	4cc
.	4B	.	.	2dd
.	4c	.	.	.
.	[2d	.	.	2b
=9	=9	=9	=9	=9
1D	2d]	1F#	2r	2a
.	2A	.	1d	2.dd
1GG	1B	1G	.	.
.	.	.	.	4cc
.	.	.	2d	4b
.	.	.	.	4a
=10	=10	=10	=10	=10
1.C	2c	0G	1e	2.g
.	4C	.	.	.
.	4D	.	.	4f
.	4E	.	2.g	2e
.	4F	.	.	.
2BB	[2G	.	.	2d
.	.	.	4f	.
=11	=11	=11	=11	=11
2C	2G]	[0A	2e	0a
2D	2F	.	1d	.
1AA	1E	.	.	.
.	.	.	2c#	.
=12	=12	=12	=12	=12
1r	1D	1A]	2d	2.f#
.	.	.	2d	.
.	.	.	.	4g
1D	1r	2r	2f	1a
.	.	2A	2d	.
=13	=13	=13	=13	=13
1F	1D	1A	2d	0r
.	.	.	2.f	.
2D	1F	[1A	.	.
.	.	.	4e	.
2D	.	.	[2d	.
=14	=14	=14	=14	=14
2F	2D	2A]	2d]	0r
2E	2E	2G	2c#	.
2.D	2.F	2A	[1d	.
.	.	2F	.	.
4C	4E	.	.	.
=15	=15	=15	=15	=15
1BB-	1D	1G	1d]	1r
[1AA	2E	1A	1c#	2r
.	2A	.	.	2a
=16	=16	=16	=16	=16
0AA]	1A	2r	1e	1cc
.	.	2A	.	.
.	[1A	1c	1e	2a
.	.	.	.	2a
=17	=17	=17	=17	=17
0r	2A]	2A	1.e	2cc
.	2G#	2B	.	2b
.	2A	2c	.	1a
.	2F	[2d	4d	.
.	.	.	4c	.
=18	=18	=18	=18	=18
0r	0G	2d]	2B	1.g
.	.	2.c	2e	.
.	.	.	2d	.
.	.	4B	.	.
.	.	4B	[2e	2g
.	.	8A	.	.
.	.	8B	.	.
=19	=19	=19	=19	=19
1r	2A	2c	2e]	2e
.	2A	2F	1f	2.a
1C	2.c	1G	.	.
.	.	.	.	4g
.	.	.	2e	[2g
.	4B	.	.	.
=20	=20	=20	=20	=20
1D	1A	0r	2.d	4g]
.	.	.	.	4f#
.	.	.	.	2f#
.	.	.	4c	.
1E	2G	.	1B	1g
.	2B	.	.	.
=21	=21	=21	=21	=21
1C	1c	1G	1r	1e
2F	1r	1A	1c	1r
2A	.	.	.	.
=22	=22	=22	=22	=22
1G	0r	1B	1d	[0g
1C	.	2G	1e	.
.	.	[2c	.	.
=23	=23	=23	=23	=23
0r	0r	2c]	2e	1g]
.	.	2e	1g	.
.	.	[1d	.	1a
.	.	.	2f#	.
=24	=24	=24	=24	=24
1r	1G	1d]	2g	1b
.	.	.	2d	.
1C	1E	[1c	[1e	1g
=25	=25	=25	=25	=25
1AA	0A	1c]	1e]	1.a
1D	.	[1d	1f#	.
.	.	.	.	2a
=26	=26	=26	=26	=26
1GG	1B	1d]	2g	0g
.	.	.	1G	.
[1C	1c	1e	.	.
.	.	.	2G	.
=27	=27	=27	=27	=27
2C]	1G	2e	4c	0cc
.	.	.	4d	.
2C	.	1c	4e	.
.	.	.	4f	.
1C	1G	.	[1g	.
.	.	2c	.	.
=28	=28	=28	=28	=28
1GG	1G	1d	1g]	1b
1GG	1G	2B	[1d	[1g
.	.	2B	.	.
=29	=29	=29	=29	=29
0D	0A	2A	2d]	2g]
.	.	2D	2d	4f
.	.	.	.	4e
.	.	2r	1d	1f#
.	.	[2d	.	.
=30	=30	=30	=30	=30
1GG	[0G	4d]	2.B	2g
.	.	4c	.	.
.	.	1B	.	1dd
.	.	.	4c	.
[1G	.	.	1d	.
.	.	2A	.	2cc
=31	=31	=31	=31	=31
2G]	0G]	2G	1r	2b
2F	.	2A	.	2a
2E	.	1B	[1g	2g
2D	.	.	.	2f
=32	=32	=32	=32	=32
0C	[0G	0c	2g]	2e
.	.	.	2f	2f
.	.	.	1e	1g
=33	=33	=33	=33	=33
[0GG	1G_	[0B	[0d	[0g
.	1G_	.	.	.
=34	=34	=34	=34	=34
0GG]	0G]	0B]	0d]	0g]
==	==	==	==	==
*-	*-	*-	*-	*-
!!!CDT: 1525/^1526/-1594/2/2
!!!OCY: Italia
!!!AGN: Mass (Paraphrase)
!!!AST: renaissance, vocal
!!!ASW: Gregorian Mass
!!!PWK: Masses, Book 1
!!!RNB: Cadence finals: F,G,D
!!!YOR: Le Opere Complete, v. 1, p. 164
!!!YOO: Rome, Italy: Fratelli Scalera
!!!END: 1992//
!!!EED: John Miller
!!!YEC: Copyright 2000, John Miller
!!!YEN: United States of America
!!!YEM: Rights to all derivative electronic formats reserved.
!!!YEM: Refer to licensing agreement for further details.
!!!YEM: This file must be accompanied by the licensing agreement.
!!!YEM: A copy of the licensing agreement may be found at http://www.music-cog.ohio-state.edu/HumdrumDatabases/Palestrina/license.txt
!!!EMD: converted to Humdrum by Bret Aarden
